X: 23168
T: Le Petit Chien
R: waltz
M: 3/4
K: Aminor
"Am"A2AB AGEG|"Am"A2GA cBAG|"Dm"d2d2cBAG|"F"cdB4"G"cB|
"Am"A2AB AGEG|"Am"A2GA cBAG|"F"d2d2cBAG|1 "Dm"cdB4"Em"cB:|2 "Dm"cdB4cd|
|:"Am"e2e2dcBA|"G"d2cd ecAB|"F"c2BA"Dm"d2cB|"F"ABcd "G"BGcd|"C"e2e2dcBA|
"Dm"d2cd ecAB|"F"c2BA "G"Bcde|1 "Am"B2A3Bcd:|2 "F"cBAG "Em"EBcB||

